src/img/icons/help-browser.svg

<svg xmlns="http://www.w3.org/2000/svg" width="384pt" height="384pt" version="1.1" viewBox="0 0 384 384"> <g> <path style="fill:rgb(90.196%,90.196%,90.196%)" d="M 192 85.75 C 133.320312 85.75 85.75 133.320312 85.75 192 C 85.75 250.679688 133.320312 298.25 192 298.25 C 250.679688 298.25 298.25 250.679688 298.25 192 C 298.25 133.320312 250.679688 85.75 192 85.75 Z M 192 98.25 C 243.777344 98.25 285.75 140.222656 285.75 192 C 285.75 243.777344 243.777344 285.75 192 285.75 C 140.222656 285.75 98.25 243.777344 98.25 192 C 98.25 140.222656 140.222656 98.25 192 98.25 Z M 192 98.25"/> <path style="fill:rgb(63.137%,41.960%,23.921%)" d="M 104.5 23.25 C 59.488281 23.25 23.25 59.488281 23.25 104.5 L 23.25 279.5 C 23.25 324.511719 59.488281 360.75 104.5 360.75 L 279.5 360.75 C 324.511719 360.75 360.75 324.511719 360.75 279.5 L 360.75 104.5 C 360.75 59.488281 324.511719 23.25 279.5 23.25 Z M 107.746094 29.5 L 276.253906 29.5 C 319.597656 29.5 354.5 64.390625 354.5 107.734375 L 354.5 276.253906 C 354.5 319.597656 319.597656 354.5 276.253906 354.5 L 107.746094 354.5 C 64.402344 354.5 29.5 319.597656 29.5 276.253906 L 29.5 107.734375 C 29.5 64.390625 64.402344 29.5 107.746094 29.5 Z M 107.746094 29.5"/> <path style="fill:rgb(90.196%,90.196%,90.196%)" d="M 192 23.25 C 98.800781 23.25 23.25 98.800781 23.25 192 C 23.25 285.199219 98.800781 360.75 192 360.75 C 285.199219 360.75 360.75 285.199219 360.75 192 C 360.75 98.800781 285.199219 23.25 192 23.25 Z M 192 92 C 247.230469 92 292 136.773438 292 192 C 292 247.226562 247.230469 292 192 292 C 136.769531 292 92 247.226562 92 192 C 92 136.773438 136.769531 92 192 92 Z M 192 92"/> <path style="fill:rgb(100.000%,100.000%,100.000%)" d="M 192 60.75 C 119.511719 60.75 60.75 119.511719 60.75 192 C 60.75 264.488281 119.511719 323.25 192 323.25 C 264.488281 323.25 323.25 264.488281 323.25 192 C 323.25 119.511719 264.488281 60.75 192 60.75 Z M 192 92 C 247.226562 92 292 136.773438 292 192 C 292 247.226562 247.226562 292 192 292 C 136.773438 292 92 247.226562 92 192 C 92 136.773438 136.773438 92 192 92 Z M 192 92"/> <path style="fill:rgb(99.215%,28.627%,28.627%)" d="M 86.164062 54.5 C 80.015625 54.5 73.871094 56.855469 69.160156 61.566406 L 67.816406 62.898438 C 58.394531 72.320312 58.394531 87.496094 67.816406 96.917969 L 93.332031 122.433594 C 102.753906 131.855469 117.929688 131.855469 127.351562 122.433594 L 128.695312 121.089844 C 138.117188 111.667969 138.117188 96.503906 128.695312 87.082031 L 103.179688 61.566406 C 98.46875 56.855469 92.3125 54.5 86.164062 54.5 Z M 297.835938 54.5 C 291.6875 54.5 285.542969 56.855469 280.832031 61.566406 L 255.316406 87.082031 C 245.894531 96.503906 245.894531 111.667969 255.316406 121.089844 L 256.660156 122.433594 C 266.082031 131.855469 281.246094 131.855469 290.667969 122.433594 L 316.183594 96.917969 C 325.605469 87.496094 325.605469 72.320312 316.183594 62.898438 L 314.851562 61.566406 C 310.140625 56.855469 303.984375 54.5 297.835938 54.5 Z M 110.347656 248.25 C 104.199219 248.25 98.042969 250.605469 93.332031 255.316406 L 67.816406 280.832031 C 58.394531 290.253906 58.394531 305.417969 67.816406 314.839844 L 69.160156 316.183594 C 78.582031 325.605469 93.757812 325.605469 103.179688 316.183594 L 128.695312 290.667969 C 138.117188 281.246094 138.117188 266.070312 128.695312 256.648438 L 127.351562 255.316406 C 122.640625 250.605469 116.496094 248.25 110.347656 248.25 Z M 273.664062 248.25 C 267.515625 248.25 261.371094 250.605469 256.660156 255.316406 L 255.316406 256.648438 C 245.894531 266.070312 245.894531 281.246094 255.316406 290.667969 L 280.832031 316.183594 C 290.253906 325.605469 305.429688 325.605469 314.851562 316.183594 L 316.183594 314.839844 C 325.605469 305.417969 325.605469 290.253906 316.183594 280.832031 L 290.667969 255.316406 C 285.957031 250.605469 279.8125 248.25 273.664062 248.25 Z M 273.664062 248.25"/> <path style="fill:rgb(74.117%,59.215%,46.666%)" d="M 29.5 173.25 C 32.953125 173.25 35.75 176.046875 35.75 179.5 L 35.75 204.5 C 35.75 207.953125 32.953125 210.75 29.5 210.75 C 26.046875 210.75 23.25 207.953125 23.25 204.5 L 23.25 179.5 C 23.25 176.046875 26.046875 173.25 29.5 173.25 Z M 29.5 173.25"/> <path style="fill:rgb(74.117%,59.215%,46.666%)" d="M 354.496094 173.25 C 357.949219 173.25 360.746094 176.046875 360.746094 179.5 L 360.746094 204.5 C 360.746094 207.953125 357.949219 210.75 354.496094 210.75 C 351.046875 210.75 348.246094 207.953125 348.246094 204.5 L 348.246094 179.5 C 348.246094 176.046875 351.046875 173.25 354.496094 173.25 Z M 354.496094 173.25"/> <path style="fill:rgb(74.117%,59.215%,46.666%)" d="M 179.5 23.25 C 176.039062 23.25 173.25 26.039062 173.25 29.5 C 173.25 32.960938 176.039062 35.75 179.5 35.75 L 204.5 35.75 C 207.960938 35.75 210.75 32.960938 210.75 29.5 C 210.75 26.039062 207.960938 23.25 204.5 23.25 Z M 179.5 348.25 C 176.039062 348.25 173.25 351.039062 173.25 354.5 C 173.25 357.960938 176.039062 360.75 179.5 360.75 L 204.5 360.75 C 207.960938 360.75 210.75 357.960938 210.75 354.5 C 210.75 351.039062 207.960938 348.25 204.5 348.25 Z M 179.5 348.25"/> <path style="fill:rgb(63.137%,41.960%,23.921%)" d="M 185.75 23.25 L 185.75 29.5 L 198.25 29.5 L 198.25 23.25 Z M 23.25 185.75 L 23.25 198.25 L 29.5 198.25 L 29.5 185.75 Z M 354.5 185.75 L 354.5 198.25 L 360.75 198.25 L 360.75 185.75 Z M 185.75 354.5 L 185.75 360.75 L 198.25 360.75 L 198.25 354.5 Z M 185.75 354.5"/> </g> </svg>

<svg width="512" height="512" version="1.1" viewBox="0 0 384 384" xmlns="http://www.w3.org/2000/svg"><path d="m192 85.75c-58.68 0-106.25 47.57-106.25 106.25s47.57 106.25 106.25 106.25 106.25-47.57 106.25-106.25-47.57-106.25-106.25-106.25zm0 12.5c51.777 0 93.75 41.973 93.75 93.75s-41.973 93.75-93.75 93.75-93.75-41.973-93.75-93.75 41.973-93.75 93.75-93.75z" fill="#e6e6e6"/><path d="m104.5 23.25c-45.012 0-81.25 36.238-81.25 81.25v175c0 45.012 36.238 81.25 81.25 81.25h175c45.012 0 81.25-36.238 81.25-81.25v-175c0-45.012-36.238-81.25-81.25-81.25zm3.2461 6.25h168.51c43.344 0 78.246 34.891 78.246 78.234v168.52c0 43.344-34.902 78.246-78.246 78.246h-168.51c-43.344 0-78.246-34.902-78.246-78.246v-168.52c0-43.344 34.902-78.234 78.246-78.234z" fill="#e15e5e"/><path d="m192 23.25c-93.199 0-168.75 75.551-168.75 168.75 0 93.199 75.551 168.75 168.75 168.75 93.199 0 168.75-75.551 168.75-168.75 0-93.199-75.551-168.75-168.75-168.75zm0 68.75c55.23 0 100 44.773 100 100s-44.77 100-100 100-100-44.773-100-100 44.77-100 100-100z" fill="#e6e6e6"/><path d="m192 60.75c-72.488 0-131.25 58.762-131.25 131.25s58.762 131.25 131.25 131.25 131.25-58.762 131.25-131.25-58.762-131.25-131.25-131.25zm0 31.25c55.227 0 100 44.773 100 100s-44.773 100-100 100-100-44.773-100-100 44.773-100 100-100z" fill="#fff"/><g fill="#bd9775"><path d="m29.5 173.25c3.4531 0 6.25 2.7969 6.25 6.25v25c0 3.4531-2.7969 6.25-6.25 6.25s-6.25-2.7969-6.25-6.25v-25c0-3.4531 2.7969-6.25 6.25-6.25z"/><path d="m354.5 173.25c3.4531 0 6.25 2.7969 6.25 6.25v25c0 3.4531-2.7969 6.25-6.25 6.25-3.4492 0-6.25-2.7969-6.25-6.25v-25c0-3.4531 2.8008-6.25 6.25-6.25z"/><path d="m179.5 23.25c-3.4609 0-6.25 2.7891-6.25 6.25s2.7891 6.25 6.25 6.25h25c3.4609 0 6.25-2.7891 6.25-6.25s-2.7891-6.25-6.25-6.25zm0 325c-3.4609 0-6.25 2.7891-6.25 6.25s2.7891 6.25 6.25 6.25h25c3.4609 0 6.25-2.7891 6.25-6.25s-2.7891-6.25-6.25-6.25z"/></g><path d="m185.75 23.25v6.25h12.5v-6.25zm-162.5 162.5v12.5h6.25v-12.5zm331.25 0v12.5h6.25v-12.5zm-168.75 168.75v6.25h12.5v-6.25z" fill="#a1683a"/><path transform="scale(.75)" d="m256 112.67c-73.641 0-133.33 59.699-133.33 133.33 0 1.6749 0.0423 3.3401 0.10351 5 2.6306-71.318 61.265-128.33 133.23-128.33 71.966 0 130.6 57.016 133.23 128.33 0.0612-1.6599 0.10351-3.3251 0.10351-5 0-73.635-59.693-133.33-133.33-133.33zm-224.94 138.33c-0.036282 1.6632-0.064453 3.3281-0.064453 5 0 124.27 100.73 225 225 225 124.27 0 225-100.73 225-225 0-1.6719-0.0282-3.3368-0.0645-5-2.6603 121.96-102.34 220-224.94 220s-222.28-98.045-224.94-220z" opacity=".3"/><path transform="scale(.75)" d="m256 31c-124.27 0-225 100.73-225 225 0 1.6719 0.02817 3.3368 0.06445 5 2.6604-121.96 102.34-220 224.94-220 122.59 0 222.28 98.045 224.94 220 0.03628-1.6632 0.06445-3.3281 0.06445-5 0-124.27-100.73-225-225-225zm-133.23 230c-0.0612 1.6599-0.10351 3.3251-0.10351 5 0 73.635 59.693 133.33 133.33 133.33 73.641 0 133.33-59.699 133.33-133.33 0-1.6749-0.0423-3.3401-0.10351-5-2.6306 71.318-61.265 128.33-133.23 128.33-71.966 0-130.6-57.016-133.23-128.33z" fill="#fff" opacity=".3"/><path d="m86.164 54.5c-6.1484 0-12.293 2.3555-17.004 7.0664l-1.3438 1.332c-9.4219 9.4219-9.4219 24.598 0 34.02l25.516 25.516c9.4219 9.4219 24.598 9.4219 34.02 0l1.3438-1.3438c9.4219-9.4219 9.4219-24.586 0-34.008l-25.516-25.516c-4.7109-4.7109-10.867-7.0664-17.016-7.0664zm211.67 0c-6.1484 0-12.293 2.3555-17.004 7.0664l-25.516 25.516c-9.4219 9.4219-9.4219 24.586 0 34.008l1.3438 1.3438c9.4219 9.4219 24.586 9.4219 34.008 0l25.516-25.516c9.4219-9.4219 9.4219-24.598 0-34.02l-1.332-1.332c-4.7109-4.7109-10.867-7.0664-17.016-7.0664zm-187.49 193.75c-6.1484 0-12.305 2.3555-17.016 7.0664l-25.516 25.516c-9.4219 9.4219-9.4219 24.586 0 34.008l1.3438 1.3438c9.4219 9.4219 24.598 9.4219 34.02 0l25.516-25.516c9.4219-9.4219 9.4219-24.598 0-34.02l-1.3438-1.332c-4.7109-4.7109-10.855-7.0664-17.004-7.0664zm163.32 0c-6.1484 0-12.293 2.3555-17.004 7.0664l-1.3438 1.332c-9.4219 9.4219-9.4219 24.598 0 34.02l25.516 25.516c9.4219 9.4219 24.598 9.4219 34.02 0l1.332-1.3438c9.4219-9.4219 9.4219-24.586 0-34.008l-25.516-25.516c-4.7109-4.7109-10.855-7.0664-17.004-7.0664z" fill="#fd4747"/></svg>
